icons/google-currents.svg

<?xml version="1.0" encoding="UTF-8"?>
<svg width="256px" height="262px" viewBox="0 0 256 262" version="1.1" xmlns="http://www.w3.org/2000/svg" xmlns:xlink="http://www.w3.org/1999/xlink" preserveAspectRatio="xMidYMid">
    <g>
        <path d="M114.170826,80.0930115 L172.953672,211.136691 L209.771365,130.250314 L222.966744,152.728847 L232.778963,180.795075 L207.308242,236.487486 C200.30633,251.948887 187.455655,261.183292 172.944447,261.183292 C158.578351,261.183292 145.839743,252.12361 138.783508,236.931283 L138.571427,236.469035 L113.432812,180.998029 L91.3661813,130.619322 L114.170826,80.0930115 Z M68.4785101,25.2308669 C81.4465339,25.2308669 92.8617665,33.2476026 99.0983106,46.700078 L99.299836,47.1406691 L114.170826,80.0930115 L91.3661813,130.619322 L68.4785101,79.8992827 L45.3736876,130.753136 L36.4947228,159.825026 L22.6293662,180.813525 L0,130.056586 L37.6571842,47.1406691 C43.8472799,33.4228266 55.3695295,25.2308669 68.4785101,25.2308669 Z" fill="#174EA6"></path>
        <path d="M207.446619,24.6496806 C200.472383,9.21595468 187.704735,0 173.276553,0 C158.839147,0 146.062273,9.21595468 139.097262,24.6681309 L68.4877353,181.357811 L45.5631633,130.370242 L22.6385914,180.82275 L37.6571842,214.116424 C43.8472799,227.834267 55.3695295,236.026227 68.4785101,236.026227 C81.5874906,236.026227 93.1097403,227.834267 99.299836,214.116424 L173.276553,49.9543489 L232.751288,181.016479 L255.998741,130.056586 L207.446619,24.6496806 Z" fill="#4285F4"></path>
    </g>
</svg>

<svg xmlns="http://www.w3.org/2000/svg" viewBox="0 0 255.999 261.183">
  <path fill="#174ea6" d="m114.17 80.093 58.784 131.044 36.817-80.887 13.196 22.479 9.812 28.066-25.47 55.692c-7.003 15.462-19.853 24.696-34.365 24.696-14.366 0-27.104-9.06-34.16-24.252l-.213-.462-25.138-55.471-22.067-50.379zM68.48 25.231c12.968 0 24.383 8.017 30.62 21.47l.2.44 14.872 32.952-22.805 50.526L68.48 79.9l-23.105 50.854-8.88 29.072-13.865 20.989L0 130.057 37.657 47.14c6.19-13.718 17.713-21.91 30.822-21.91z"/>
  <path fill="#4285f4" d="M207.447 24.65C200.472 9.216 187.705 0 173.277 0c-14.438 0-27.215 9.216-34.18 24.668l-70.61 156.69-22.924-50.988-22.924 50.453 15.018 33.293c6.19 13.718 17.713 21.91 30.822 21.91 13.108 0 24.63-8.192 30.82-21.91l73.978-164.162 59.474 131.062L256 130.056z"/>
</svg>
